packages/katcn/src/icons/svg/attention.svg

<svg width="24" height="25" viewBox="0 0 24 25" fill="none" xmlns="http://www.w3.org/2000/svg">
<path fill-rule="evenodd" clip-rule="evenodd" d="M12 4.31201C7.58172 4.31201 4 7.89373 4 12.312C4 16.7303 7.58172 20.312 12 20.312C16.4183 20.312 20 16.7303 20 12.312C20 7.89373 16.4183 4.31201 12 4.31201ZM2 12.312C2 6.78916 6.47715 2.31201 12 2.31201C17.5228 2.31201 22 6.78916 22 12.312C22 17.8349 17.5228 22.312 12 22.312C6.47715 22.312 2 17.8349 2 12.312ZM12 5.31201C12.5523 5.31201 13 5.75973 13 6.31201V13.312C13 13.8643 12.5523 14.312 12 14.312C11.4477 14.312 11 13.8643 11 13.312V6.31201C11 5.75973 11.4477 5.31201 12 5.31201ZM12 16.312C12.5523 16.312 13 16.7597 13 17.312V18.312C13 18.8643 12.5523 19.312 12 19.312C11.4477 19.312 11 18.8643 11 18.312V17.312C11 16.7597 11.4477 16.312 12 16.312Z" fill="black"/>
</svg>

<svg xmlns="http://www.w3.org/2000/svg" fill="none" viewBox="0 0 24 25"><path fill="#000" fill-rule="evenodd" d="M12 4.312a8 8 0 1 0 0 16 8 8 0 0 0 0-16m-10 8c0-5.523 4.477-10 10-10s10 4.477 10 10-4.477 10-10 10-10-4.477-10-10m10-7a1 1 0 0 1 1 1v7a1 1 0 1 1-2 0v-7a1 1 0 0 1 1-1m0 11a1 1 0 0 1 1 1v1a1 1 0 1 1-2 0v-1a1 1 0 0 1 1-1" clip-rule="evenodd"/></svg>
